app/dist/common/images/cooper-standard-holdings-inc.svg

<svg fill="none" height="18" viewBox="0 0 18 18" width="18" xmlns="http://www.w3.org/2000/svg"><path d="m0 0h18v18h-18z" fill="#f0f3fa"/><path d="m9.88778 11.9995c-.00442 0-.00932-.0004-.01369-.0009-3.80377-.7507-5.7789-1.8305-5.87072-3.20905-.18413-2.76609 7.24063-5.66294 7.55713-5.78468.041-.01578.085.0079.1006.05468.0156.04622-.0027.09862-.0425.11891-3.96942 2.02162-5.91254 3.86451-5.77579 5.47719.18023 2.13035 4.02376 3.14985 4.06283 3.16005.04249.0113.07034.0597.06155.1093-.00781.044-.04152.075-.07913.075" fill="#00539f"/><path d="m7.14906 15c-.2924 0-.55067-.016-.74731-.0463-.04123-.0062-.07111-.0502-.06827-.0999.00266-.0497.03699-.0885.07822-.0885h.00037l.01705.0005c1.62261 0 5.06958-.8515 5.87328-2.4788.2322-.4711.227-.9839-.0161-1.523-.3408-.756-1.1578-1.1877-1.8785-1.5686-.45074-.23811-.87626-.46312-1.14073-.74347-.2905-.30778-.39194-.69209-.29287-1.11063.24358-1.0261 1.7132-2.17847 3.1457-2.46508.0413-.00799.0806.02397.0891.07308.009.04911-.0156.09822-.0559.11078-1.1933.38601-1.869 1.21917-1.9918 1.83012-.0611.3015 0 .56303.1758.75549.1441.1576.5592.38943 1.0407.65726.9212.51393 2.0685 1.15348 2.3552 1.83185.3502.8286.3559 1.5863.0166 2.2533-.9677 1.9026-4.56223 2.6118-6.60073 2.6118" fill="#eeb111"/></svg>

<!-- by TradingView --><svg width="18" height="18" viewBox="0 0 18 18" fill="none" xmlns="http://www.w3.org/2000/svg">
<rect width="18" height="18" fill="#F0F3FA"/>
<path d="M9.88778 11.9995C9.88336 11.9995 9.87846 11.9991 9.87409 11.9986C6.07032 11.2479 4.09519 10.1681 4.00337 8.78955C3.81924 6.02346 11.244 3.12661 11.5605 3.00487C11.6015 2.98909 11.6455 3.01277 11.6611 3.05955C11.6767 3.10577 11.6584 3.15817 11.6186 3.17846C7.64918 5.20008 5.70606 7.04297 5.84281 8.65565C6.02304 10.786 9.86657 11.8055 9.90564 11.8157C9.94813 11.827 9.97598 11.8754 9.96719 11.925C9.95938 11.969 9.92567 12 9.88806 12" fill="#00539F"/>
<path d="M7.14906 15C6.85666 15 6.59839 14.984 6.40175 14.9537C6.36052 14.9475 6.33064 14.9035 6.33348 14.8538C6.33614 14.8041 6.37047 14.7653 6.4117 14.7653H6.41207L6.42912 14.7658C8.05173 14.7658 11.4987 13.9143 12.3024 12.287C12.5346 11.8159 12.5294 11.3031 12.2863 10.764C11.9455 10.008 11.1285 9.5763 10.4078 9.1954C9.95706 8.95729 9.53154 8.73228 9.26707 8.45193C8.97657 8.14415 8.87513 7.75984 8.9742 7.3413C9.21778 6.3152 10.6874 5.16283 12.1199 4.87622C12.1612 4.86823 12.2005 4.90019 12.209 4.9493C12.218 4.99841 12.1934 5.04752 12.1531 5.06008C10.9598 5.44609 10.2841 6.27925 10.1613 6.8902C10.1002 7.1917 10.1613 7.45323 10.3371 7.64569C10.4812 7.80329 10.8963 8.03512 11.3778 8.30295C12.299 8.81688 13.4463 9.45643 13.733 10.1348C14.0832 10.9634 14.0889 11.7211 13.7496 12.3881C12.7819 14.2907 9.18737 14.9999 7.14887 14.9999" fill="#EEB111"/>
</svg>
